X: 3
T: Ni er lili ya
%%abc-version 2.0
%%abcx-abcm2ps-target-version 5.9.1 (29 Sep 2008)
%%abc-creator hum2abc beta
%%abcx-conversion-date 2013/10/02 07:44:27
%%abc-edited-by Helmut Schaffrath
%%humdrum-veritas 2170113337
%%humdrum-veritas-data 2760654072
%%continueall 1
%%barnumbers 0
L: 1/8
M: 3/4
K: G
d2e2e2 [I:setbarnb 1]| 
d6 | 
e d e ge2 | 
d2>g2 e d | 
B2B3A | 
d2B AG2 | 
A B A GE2 | 
D6 | 
G6 | 
D2G2B A | 
G A A GE2 | 
D6 |]  



